assets/valentine-grey/ValentineGrey8.svg

<svg xmlns="http://www.w3.org/2000/svg" data-name="Layer 1" viewBox="0 0 128 128"><path d="M99.811 55.333H84.125a1.25 1.25 0 000 2.5h14.436v27.833h-6.206a1.25 1.25 0 00-1.25 1.25v4.524L85.7 86.032a1.25 1.25 0 00-.884-.366H52.48V68.915l10.636 10.636a1.25 1.25 0 001.768 0l12.79-12.79a1.178 1.178 0 00.162-.2 10.244 10.244 0 00.184-13.483V33.542a1.25 1.25 0 00-1.25-1.25H28.19a1.25 1.25 0 00-1.25 1.25v30.334a1.25 1.25 0 001.25 1.25h6.21v6.291a1.25 1.25 0 002.134.884l7.542-7.541a1.25 1.25 0 00-1.776-1.768L36.9 68.4v-4.524a1.25 1.25 0 00-1.25-1.25h-6.21V34.792h46.08v16.141a10.236 10.236 0 00-11.52.544 10.279 10.279 0 00-14.02 14.856v20.583a1.25 1.25 0 001.25 1.25H84.3l7.176 7.176a1.25 1.25 0 002.134-.884v-6.292h6.206a1.25 1.25 0 001.25-1.25V56.583a1.25 1.25 0 00-1.255-1.25zM52.329 54.2a7.759 7.759 0 0110.818-.185 1.251 1.251 0 001.705 0 7.785 7.785 0 0111.012 10.998 1.157 1.157 0 00-.1.121L64 76.9 52.236 65.135a1.4 1.4 0 00-.1-.117c-.015-.016-.026-.035-.042-.05a7.76 7.76 0 01.235-10.768z"/></svg>

<svg id="Layer_1" data-name="Layer 1" xmlns="http://www.w3.org/2000/svg" viewBox="0 0 128 128"><title>VALENTINE CHAT</title><path d="M99.811,55.333H84.125a1.25,1.25,0,0,0,0,2.5H98.561V85.666H92.355a1.25,1.25,0,0,0-1.25,1.25V91.44L85.7,86.032a1.25,1.25,0,0,0-.884-.366H52.48V68.915L63.116,79.551a1.25,1.25,0,0,0,1.768,0l12.79-12.79a1.178,1.178,0,0,0,.162-.2,10.244,10.244,0,0,0,.184-13.483V33.542a1.25,1.25,0,0,0-1.25-1.25H28.19a1.25,1.25,0,0,0-1.25,1.25V63.876a1.25,1.25,0,0,0,1.25,1.25H34.4v6.291a1.25,1.25,0,0,0,2.134.884l7.542-7.541A1.25,1.25,0,0,0,42.3,62.992L36.9,68.4V63.876a1.25,1.25,0,0,0-1.25-1.25H29.44V34.792H75.52V50.933A10.236,10.236,0,0,0,64,51.477,10.279,10.279,0,0,0,49.98,66.333V86.916a1.25,1.25,0,0,0,1.25,1.25H84.3l7.176,7.176a1.25,1.25,0,0,0,2.134-.884V88.166h6.206a1.25,1.25,0,0,0,1.25-1.25V56.583A1.25,1.25,0,0,0,99.811,55.333ZM52.329,54.2a7.759,7.759,0,0,1,10.818-.185,1.251,1.251,0,0,0,1.705,0A7.785,7.785,0,0,1,75.864,65.013a1.157,1.157,0,0,0-.1.121L64,76.9,52.236,65.135a1.4,1.4,0,0,0-.1-.117c-.015-.016-.026-.035-.042-.05A7.76,7.76,0,0,1,52.329,54.2Z"/></svg>
